icons/tokens/white/XLM.svg

<?xml version="1.0" encoding="UTF-8"?>
<!DOCTYPE svg PUBLIC "-//W3C//DTD SVG 1.1//EN" "http://www.w3.org/Graphics/SVG/1.1/DTD/svg11.dtd">
<svg xmlns="http://www.w3.org/2000/svg" version="1.1" width="512px" height="433px" style="shape-rendering:geometricPrecision; text-rendering:geometricPrecision; image-rendering:optimizeQuality; fill-rule:evenodd; clip-rule:evenodd" xmlns:xlink="http://www.w3.org/1999/xlink">
<g><path style="opacity:0.951" fill="#000000" d="M 229.5,-0.5 C 246.833,-0.5 264.167,-0.5 281.5,-0.5C 318.241,4.69351 351.907,17.8602 382.5,39C 383.451,39.7175 383.617,40.5509 383,41.5C 369.453,48.3573 355.953,55.3573 342.5,62.5C 279.915,30.0758 218.582,32.2424 158.5,69C 100.681,110.156 74.8472,166.322 81,237.5C 224.573,164.63 368.073,91.63 511.5,18.5C 511.5,33.8333 511.5,49.1667 511.5,64.5C 341.076,151.712 170.41,238.378 -0.5,324.5C -0.5,309.167 -0.5,293.833 -0.5,278.5C 11.6814,274.492 22.1814,267.825 31,258.5C 36.0487,251.144 38.5487,242.978 38.5,234C 34.1586,158.963 60.1586,96.9625 116.5,48C 149.692,21.4041 187.358,5.23747 229.5,-0.5 Z"/></g>
<g><path style="opacity:0.951" fill="#000000" d="M 511.5,107.5 C 511.5,122.833 511.5,138.167 511.5,153.5C 498.726,157.629 487.892,164.629 479,174.5C 474.73,181.747 472.563,189.581 472.5,198C 476.032,293.972 436.032,364.972 352.5,411C 329.458,421.74 305.458,428.906 280.5,432.5C 263.833,432.5 247.167,432.5 230.5,432.5C 193.221,427.527 159.221,414.194 128.5,392.5C 127.614,391.675 127.281,390.675 127.5,389.5C 141.471,383.682 155.137,377.016 168.5,369.5C 230.557,401.679 291.557,399.845 351.5,364C 410.108,322.612 436.108,266.112 429.5,194.5C 286.171,267.498 142.838,340.498 -0.5,413.5C -0.5,397.833 -0.5,382.167 -0.5,366.5C 158.79,286.189 317.79,205.355 476.5,124C 488.087,118.224 499.754,112.724 511.5,107.5 Z"/></g>
</svg>

<?xml version="1.0" encoding="utf-8"?>
<!-- Generator: Adobe Illustrator 28.0.0, SVG Export Plug-In . SVG Version: 6.00 Build 0)  -->
<svg version="1.1" id="Layer_1" xmlns="http://www.w3.org/2000/svg" xmlns:xlink="http://www.w3.org/1999/xlink" x="0px" y="0px"
	 viewBox="0 0 512 433" style="enable-background:new 0 0 512 433;" xml:space="preserve">
<style type="text/css">
	.st0{opacity:0.951;fill-rule:evenodd;clip-rule:evenodd;fill:#FFFFFF;enable-background:new    ;}
</style>
<g>
	<path class="st0" d="M229.5-0.5c17.3,0,34.7,0,52,0c36.7,5.2,70.4,18.4,101,39.5c1,0.7,1.1,1.6,0.5,2.5c-13.5,6.9-27,13.9-40.5,21
		c-62.6-32.4-123.9-30.3-184,6.5c-57.8,41.2-83.7,97.3-77.5,168.5c143.6-72.9,287.1-145.9,430.5-219c0,15.3,0,30.7,0,46
		c-170.4,87.2-341.1,173.9-512,260c0-15.3,0-30.7,0-46c12.2-4,22.7-10.7,31.5-20c5-7.4,7.5-15.5,7.5-24.5c-4.3-75,21.7-137,78-186
		C149.7,21.4,187.4,5.2,229.5-0.5z"/>
</g>
<g>
	<path class="st0" d="M511.5,107.5c0,15.3,0,30.7,0,46c-12.8,4.1-23.6,11.1-32.5,21c-4.3,7.2-6.4,15.1-6.5,23.5
		c3.5,96-36.5,167-120,213c-23,10.7-47,17.9-72,21.5c-16.7,0-33.3,0-50,0c-37.3-5-71.3-18.3-102-40c-0.9-0.8-1.2-1.8-1-3
		c14-5.8,27.6-12.5,41-20c62.1,32.2,123.1,30.3,183-5.5c58.6-41.4,84.6-97.9,78-169.5c-143.3,73-286.7,146-430,219
		c0-15.7,0-31.3,0-47c159.3-80.3,318.3-161.1,477-242.5C488.1,118.2,499.8,112.7,511.5,107.5z"/>
</g>
</svg>
